X:118
T:score202
L:1/8
Q:1/4=96
M:2/2
I:linebreak $
K:Emin
!f! fg | agfg agfg | a6 gf | agfe P^d2 e2 |$ fe^d^c B2 ab | c'bab c'bab | c'4- c'bac' |$ %7
 b2 ag agfg | e6 z2 |] %9
